icon/ir/www.svg

<svg stroke-width="1.5" viewBox="0 0 24 24" fill="none" xmlns="http://www.w3.org/2000/svg" height="1em" width="1em">
  <path d="M3.33789 17C5.06694 19.989 8.29866 22 12.0001 22C15.7015 22 18.9332 19.989 20.6622 17" stroke="currentColor" stroke-linecap="round" stroke-linejoin="round"/>
  <path d="M3.33789 7C5.06694 4.01099 8.29866 2 12.0001 2C15.7015 2 18.9332 4.01099 20.6622 7" stroke="currentColor" stroke-linecap="round" stroke-linejoin="round"/>
  <path d="M13 21.9506C13 21.9506 14.4079 20.0966 15.2947 16.9999" stroke="currentColor" stroke-linecap="round" stroke-linejoin="round"/>
  <path d="M13 2.04932C13 2.04932 14.4079 3.90328 15.2947 7" stroke="currentColor" stroke-linecap="round" stroke-linejoin="round"/>
  <path d="M11 21.9506C11 21.9506 9.59215 20.0966 8.70532 16.9999" stroke="currentColor" stroke-linecap="round" stroke-linejoin="round"/>
  <path d="M11 2.04932C11 2.04932 9.59215 3.90328 8.70532 7" stroke="currentColor" stroke-linecap="round" stroke-linejoin="round"/>
  <path d="M9 10L10.5 15L12 10L13.5 15L15 10" stroke="currentColor" stroke-linecap="round" stroke-linejoin="round"/>
  <path d="M1 10L2.5 15L4 10L5.5 15L7 10" stroke="currentColor" stroke-linecap="round" stroke-linejoin="round"/>
  <path d="M17 10L18.5 15L20 10L21.5 15L23 10" stroke="currentColor" stroke-linecap="round" stroke-linejoin="round"/>
</svg>

<svg width="24" height="24" stroke-width="1.5" fill="none" xmlns="http://www.w3.org/2000/svg"><path d="M3.338 17A9.996 9.996 0 0 0 12 22a9.996 9.996 0 0 0 8.662-5M3.338 7A9.996 9.996 0 0 1 12 2a9.996 9.996 0 0 1 8.662 5" stroke="currentColor" stroke-linecap="round" stroke-linejoin="round"/><path d="M13 21.95s1.408-1.853 2.295-4.95M13 2.05S14.408 3.902 15.295 7M11 21.95S9.592 20.098 8.705 17M11 2.05S9.592 3.902 8.705 7M9 10l1.5 5 1.5-5 1.5 5 1.5-5M1 10l1.5 5L4 10l1.5 5L7 10M17 10l1.5 5 1.5-5 1.5 5 1.5-5" stroke="currentColor" stroke-linecap="round" stroke-linejoin="round"/></svg>
